X:7459
T:the Welsh Hornpipe
O:england
M:3/2
L:1/8
K:D
P:1
A2| cc d2 c4 BA F2 | GFED C2 E4 A2 | cc d2 c4 BA F2 | GFED A,2 D4 ||
P:2
EF| GFED  F2 A4 EF | GFED C2 E4 EF | GFED  F2 A4 Bc | dcBA d2  D4 ||
P:3
Bc| dcBA  d2 D4 EF | GFED C2 E4 Bc | dcBA  d2 D4 EF | GFED A,2 D4 |]


